icons/speach.svg

<svg width="34" height="27" viewBox="0 0 34 27" fill="none" xmlns="http://www.w3.org/2000/svg">
<g id="Group 249">
<path id="Vector" d="M19.8572 1H4.1186C3.7088 1 3.30302 1.08548 2.92441 1.25158C2.54581 1.41767 2.20181 1.66113 1.91204 1.96803C1.62227 2.27493 1.39241 2.63927 1.23559 3.04026C1.07877 3.44124 0.998047 3.87103 0.998047 4.30506V13.3568C0.998047 14.2334 1.32682 15.074 1.91204 15.6939C2.49725 16.3137 3.29098 16.6619 4.1186 16.6619H5.01867V20.7943L8.41519 16.6619H16.2484C18.0331 16.6619 19.7448 15.911 21.0068 14.5744C22.2688 13.2378 22.9778 11.4249 22.9778 9.53467V4.30506C22.9778 3.87103 22.897 3.44124 22.7402 3.04026C22.5834 2.63927 22.3535 2.27493 22.0638 1.96803C21.774 1.66113 21.43 1.41767 21.0514 1.25158C20.6728 1.08548 20.267 1 19.8572 1Z" stroke="black" stroke-width="0.578291" stroke-miterlimit="10"/>
<path id="Vector_2" d="M17.7476 5.57764H29.8774C30.705 5.57764 31.4988 5.92586 32.084 6.54567C32.6692 7.16549 32.998 8.00614 32.998 8.8827V17.9435C32.998 18.3775 32.9172 18.8073 32.7604 19.2083C32.6036 19.6093 32.3737 19.9736 32.084 20.2805C31.7942 20.5874 31.4502 20.8309 31.0716 20.997C30.693 21.1631 30.2872 21.2485 29.8774 21.2485H28.9773V25.381L25.5808 21.2485H14.1388C13.7283 21.2497 13.3216 21.1651 12.942 20.9995C12.5624 20.834 12.2174 20.5907 11.9268 20.2837C11.6361 19.9767 11.4055 19.6119 11.2481 19.2104C11.0908 18.8088 11.0098 18.3783 11.0098 17.9435V12.7049C11.0098 11.7682 11.1841 10.8406 11.5228 9.97532C11.8615 9.11002 12.358 8.32392 12.9837 7.66198C13.6095 7.00004 14.3524 6.47524 15.1698 6.11759C15.9872 5.75994 16.8632 5.57646 17.7476 5.57764Z" class="accent" stroke="#B3976B" stroke-width="0.578291" stroke-miterlimit="10"/>
<path id="Vector_3" d="M17.0882 13.757C18.6288 13.757 19.8776 12.4343 19.8776 10.8027C19.8776 9.17108 18.6288 7.84839 17.0882 7.84839C15.5477 7.84839 14.2988 9.17108 14.2988 10.8027C14.2988 12.4343 15.5477 13.757 17.0882 13.757Z" stroke="black" stroke-width="0.578291" stroke-miterlimit="10"/>
<path id="Vector_4" d="M17.0892 11.8551C17.6379 11.8551 18.0827 11.384 18.0827 10.8028C18.0827 10.2217 17.6379 9.75061 17.0892 9.75061C16.5405 9.75061 16.0957 10.2217 16.0957 10.8028C16.0957 11.384 16.5405 11.8551 17.0892 11.8551Z" fill="#B3976B" class="accent"/>
</g>
</svg>

<svg width="34" height="27" fill="none"
  xmlns="http://www.w3.org/2000/svg">
  <path d="M19.857 1H4.12c-.41 0-.816.085-1.195.252-.378.166-.722.41-1.012.716-.29.307-.52.671-.676 1.072-.157.401-.238.831-.238 1.265v9.052c0 .876.329 1.717.914 2.337.585.62 1.379.968 2.207.968h.9v4.132l3.396-4.132h7.833c1.785 0 3.497-.751 4.759-2.088 1.262-1.336 1.97-3.15 1.97-5.04V4.306c0-.434-.08-.864-.237-1.265a3.325 3.325 0 0 0-.676-1.072 3.116 3.116 0 0 0-1.013-.716A2.97 2.97 0 0 0 19.857 1z" stroke="#000" stroke-width=".578" stroke-miterlimit="10"/>
  <path class="accent" d="M17.748 5.578h12.13c.827 0 1.62.348 2.206.968.585.62.914 1.46.914 2.337v9.06c0 .434-.08.864-.238 1.265a3.325 3.325 0 0 1-.676 1.073c-.29.306-.634.55-1.012.716a2.97 2.97 0 0 1-1.195.252h-.9v4.132l-3.396-4.133H14.139A2.969 2.969 0 0 1 12.942 21a3.112 3.112 0 0 1-1.015-.716 3.325 3.325 0 0 1-.679-1.074 3.477 3.477 0 0 1-.238-1.267v-5.238c0-.937.174-1.864.513-2.73a7.17 7.17 0 0 1 1.46-2.313 6.718 6.718 0 0 1 2.187-1.544 6.404 6.404 0 0 1 2.578-.54z" class="accent" stroke="#B3976B" stroke-width=".578" stroke-miterlimit="10"/>
  <path d="M17.088 13.757c1.54 0 2.79-1.323 2.79-2.954 0-1.632-1.25-2.955-2.79-2.955s-2.79 1.323-2.79 2.955c0 1.631 1.25 2.954 2.79 2.954z" stroke="#000" stroke-width=".578" stroke-miterlimit="10"/>
  <path class="accent" d="M17.09 11.855c.548 0 .993-.471.993-1.052 0-.581-.445-1.052-.994-1.052-.548 0-.993.47-.993 1.052 0 .581.445 1.052.993 1.052z" fill="#B3976B" class="accent"/>
</svg>
